src/ad-totals.svg

<svg xmlns="http://www.w3.org/2000/svg" width="486" height="486" viewBox="0 0 486 486">
    <path d="M30.328 0H.001v454.886 30.326h30.327 454.884v-30.326h-90.976v-30.327h-30.327v30.327h-60.653v-30.327h-30.322v30.327h-60.65v-30.327h-30.327v30.327h-60.651v-30.327H90.979v30.327H30.328V0h0zm181.955 333.584v60.652H60.652v-60.652h151.631 0zm90.973-90.978v60.651H60.652v-60.651h242.604 0zm90.98-90.978v60.653H60.652v-60.653h333.584 0zm90.976-90.977v60.653H60.652V60.651h424.56 0z"/>
</svg>

<?xml version="1.0" encoding="UTF-8" standalone="no"?>
<!--
Icon made by <a href="http://www.simpleicon.com" title="SimpleIcon">SimpleIcon</a> from <a href="http://www.flaticon.com" title="Flaticon">www.flaticon.com</a> is licensed under <a href="http://creativecommons.org/licenses/by/3.0/" title="Creative Commons BY 3.0">CC BY 3.0</a>
-->
<svg width="486px" height="486px" viewBox="0 0 486 486" version="1.1" xmlns="http://www.w3.org/2000/svg" xmlns:xlink="http://www.w3.org/1999/xlink" xmlns:sketch="http://www.bohemiancoding.com/sketch/ns">
    <!-- Generator: Sketch 3.1.1 (8761) - http://www.bohemiancoding.com/sketch -->
    <g id="Page-1" stroke="none" stroke-width="1" fill="none" fill-rule="evenodd" sketch:type="MSPage">
        <g id="ad-totals" sketch:type="MSLayerGroup" fill="#000000">
            <path d="M30.328,0 L0.001,0 L0.001,454.886 L0.001,485.212 L30.328,485.212 L485.212,485.212 L485.212,454.886 L394.236,454.886 L394.236,424.559 L363.909,424.559 L363.909,454.886 L303.256,454.886 L303.256,424.559 L272.934,424.559 L272.934,454.886 L212.284,454.886 L212.284,424.559 L181.957,424.559 L181.957,454.886 L121.306,454.886 L121.306,424.559 L90.979,424.559 L90.979,454.886 L30.328,454.886 L30.328,0 L30.328,0 Z M212.283,333.584 L212.283,394.236 L60.652,394.236 L60.652,333.584 L212.283,333.584 L212.283,333.584 Z M303.256,242.606 L303.256,303.257 L60.652,303.257 L60.652,242.606 L303.256,242.606 L303.256,242.606 Z M394.236,151.628 L394.236,212.281 L60.652,212.281 L60.652,151.628 L394.236,151.628 L394.236,151.628 Z M485.212,60.651 L485.212,121.304 L60.652,121.304 L60.652,60.651 L485.212,60.651 L485.212,60.651 Z" id="Shape" sketch:type="MSShapeGroup"></path>
        </g>
    </g>
</svg>
